X: 4256
T: BONNIE PRINCE CHARLIE
%R: jig
B: James Kerr "Merry Melodies" v.4 p.28 #256
Z: 2016 John Chambers <jc:trillian.mit.edu>
M: 6/8
L: 1/8
K: G
|:\
BAG G2e | dBg BAG | BAA ABd | gfe edB |\
deg age | edB deg | BAG gfe | dGB A2G :|
|:\
g2d a2d | bag gfe | ded dGA | BdB A2G |\
g2d a2d | bag gfe | dBG GBd | gab a2g :|

%%sep 1 1 500
%%sep 1 1 500

